public/icons/phrases.svg

<svg width="365" height="386" viewBox="0 0 365 386" fill="none" xmlns="http://www.w3.org/2000/svg">
<path d="M347.915 38.9072H118.381C111.575 38.9072 106.041 44.4415 106.041 51.2476V135.567C106.041 142.373 111.575 147.907 118.381 147.907H347.915C354.721 147.907 360.255 142.373 360.255 135.567V51.2476C360.255 44.4415 354.721 38.9072 347.915 38.9072Z" fill="white"/>
<path d="M347.915 38.9072H118.381C111.575 38.9072 106.041 44.4415 106.041 51.2476V135.567C106.041 142.373 111.575 147.907 118.381 147.907H347.915C354.721 147.907 360.255 142.373 360.255 135.567V51.2476C360.255 44.4415 354.721 38.9072 347.915 38.9072ZM358.957 135.567C358.957 141.659 354.007 146.61 347.915 146.61H118.381C112.289 146.61 107.338 141.659 107.338 135.567V51.2476C107.338 45.1553 112.289 40.2048 118.381 40.2048H347.915C354.007 40.2048 358.957 45.1553 358.957 51.2476V135.567Z" fill="#3F3D56"/>
<path d="M129.128 77.3364H333.128C335.061 77.3364 336.628 78.9034 336.628 80.8364C336.628 82.7694 335.061 84.3364 333.128 84.3364H129.128C127.195 84.3364 125.628 82.7694 125.628 80.8364C125.628 78.9034 127.195 77.3364 129.128 77.3364Z" fill="#E4E4E4"/>
<path d="M129.128 100.336H203.128C205.061 100.336 206.628 101.903 206.628 103.836C206.628 105.769 205.061 107.336 203.128 107.336H129.128C127.195 107.336 125.628 105.769 125.628 103.836C125.628 101.903 127.195 100.336 129.128 100.336Z" fill="#E4E4E4"/>
<path d="M237.628 117.336C245.36 117.336 251.628 111.068 251.628 103.336C251.628 95.6044 245.36 89.3364 237.628 89.3364C229.896 89.3364 223.628 95.6044 223.628 103.336C223.628 111.068 229.896 117.336 237.628 117.336Z" fill="#E4E4E4"/>
<path d="M244.91 95.1386C244.243 94.7484 243.224 94.9507 242.858 95.6768C241.194 98.9733 239.53 102.27 237.866 105.567C236.523 103.464 234.806 101.627 232.814 100.088C232.172 99.5928 231.133 99.9908 230.762 100.627C230.308 101.401 230.656 102.182 231.3 102.679C233.623 104.473 235.414 106.886 236.62 109.548C237.079 110.56 238.732 110.496 239.211 109.548C241.29 105.429 243.369 101.31 245.448 97.1909C245.813 96.468 245.639 95.5651 244.91 95.1386Z" fill="white"/>
<path d="M60.5168 68.0709C61.405 63.9746 61.666 66.9922 63.598 63.2766C62.2719 68.078 64.7189 66.5057 67.9694 70.2706C90.8125 73.8523 92.2519 66.0286 100.706 66.2684L100.749 66.2681C102.609 66.2379 103.565 64.0105 102.443 62.5261C99.6741 58.8607 96.6217 53.205 99.5105 49.6443C104.628 43.3363 100.118 30.4008 97.9125 33.1974C97.9125 22.4103 84.6283 15.3363 79.4752 17.089C69.9536 20.3275 61.1358 24.6954 60.0678 34.4686C59.9011 35.9947 59.6854 37.5119 59.4113 39.0224C58.8545 42.0898 56.5614 42.9044 57.3506 45.9169L59.8183 48.4271C60.9764 52.8479 60.6105 57.489 59.024 61.7748C58.1471 64.1439 58.0255 66.1751 60.5168 68.0709Z" fill="#2F2E41"/>
<path d="M84.2983 53.5963C92.2062 53.5963 98.6168 47.1857 98.6168 39.2778C98.6168 31.3699 92.2062 24.9592 84.2983 24.9592C76.3904 24.9592 69.9797 31.3699 69.9797 39.2778C69.9797 47.1857 76.3904 53.5963 84.2983 53.5963Z" fill="#FFB8B8"/>
<path d="M61.9932 365.697L69.367 365.871L73.4773 332.743L62.5954 332.486L61.9932 365.697Z" fill="#A0616A"/>
<path d="M87.2918 381.081C87.2918 382.327 86.4078 383.337 85.3173 383.337H70.6809C70.6809 383.337 69.2406 377.547 63.3681 375.055L62.9628 383.337H55.4124L56.3272 370.02C56.3272 370.02 54.3074 362.896 58.502 359.254C62.6967 355.613 59.2992 356.12 59.2992 356.12L60.9493 347.878L72.3588 349.22L72.4427 362.157L77.9796 374.999L86.101 379.011C86.8238 379.368 87.2918 380.181 87.2918 381.081Z" fill="#2F2E41"/>
<path d="M70.1028 335.642L75.9598 340.125L98.7913 315.772L90.1483 309.155L70.1028 335.642Z" fill="#A0616A"/>
<path d="M81.489 362.974C80.7554 363.98 79.4463 364.276 78.565 363.634L66.7359 355.014C66.7359 355.014 68.9816 349.486 65.7029 344.014L60.4982 350.469L54.396 346.022L62.9775 335.799C62.9775 335.799 65.5407 328.852 71.0755 328.379C76.6103 327.906 73.5659 326.315 73.5659 326.315L79.7532 320.625L88.1841 328.429L80.6327 338.935L77.5448 352.574L81.7458 360.599C82.1197 361.313 82.0188 362.247 81.489 362.974Z" fill="#2F2E41"/>
<path d="M49.0029 196.309C49.4475 198.132 48.6286 206.615 49.0864 209.534C50.2507 216.956 60.8879 257.421 59.0529 268.956C52.3295 311.222 61.6283 338.336 61.6283 338.336H76.6283L84.6283 210.336L92.4361 220.629L107.714 266.26L80.6881 314.852L94.7996 326.506L136.934 259.515L106.993 147.451L105.184 140.685L64.7313 139.556L66.9821 142.929L61.8617 147.988C61.8617 147.988 61.8549 148.002 61.8277 148.029C61.0389 149.131 43.5085 173.794 49.0029 196.309Z" fill="#2F2E41"/>
<path d="M61.8276 148.029C66.5128 149.702 98.1736 147.975 106.993 147.451L105.184 140.685L64.7313 139.556L66.982 142.929L61.8616 147.988C61.8616 147.988 61.8548 148.002 61.8276 148.029Z" fill="#FFB8B8"/>
<path d="M114.189 93.8429L112.732 101.575L112.378 103.429L104.628 119.337L105.647 142.657C106.299 145.386 78.7799 139.193 64.4841 145.591L53.3562 92.3712L64.6396 67.8419L73.4702 62.9361L74.9419 57.0491H93.648C94.6442 61.7146 93.5643 64.0134 91.6283 65.3365L96.3141 77.8332L114.189 93.8429Z" fill="#E4E4E4"/>
<path d="M128.82 48.2388C128.589 50.241 127.924 52.0249 127.006 53.3698L126.005 72.5829L116.877 71.8392L118.875 52.4295C118.288 50.9105 118.048 49.022 118.279 47.0198C118.808 42.4458 121.597 39.0106 124.508 39.3472C127.418 39.6838 129.349 43.6647 128.82 48.2388Z" fill="#FFB8B8"/>
<path d="M92.4374 68.4299L93.6283 71.3364C93.6283 71.3364 76.2281 69.5932 76.5996 78.6782C76.9166 86.4297 109.669 117.15 111.234 117.867C115.869 119.991 121.256 117.132 122.095 112.103C129.47 93.0761 130.998 75.9218 127.628 60.3364H117.628L114.372 72.6314L114.189 81.9837L108.916 93.2321L91.6283 71.3364L92.4374 68.4299Z" fill="#E4E4E4"/>
<path d="M34.4644 175.224C35.1074 173.265 35.2545 171.323 34.978 169.68L42.2816 151.405L33.4837 148.184L27.0222 167.069C25.826 168.229 24.7939 169.88 24.151 171.839C22.6822 176.315 23.8003 180.7 26.6483 181.635C29.4963 182.57 32.9957 179.699 34.4644 175.224Z" fill="#FFB8B8"/>
<path d="M76.5937 68.4399C76.5937 68.4399 65.7911 64.3438 59.6586 69.349C57.1295 71.4132 45.9448 85.6365 44.2219 104.785C44.0869 106.286 43.0645 107.577 42.4886 108.98C38.9366 117.636 32.8216 121.623 30.2215 129.026C29.2054 131.919 31.0691 139.401 30.4271 141.897C27.0652 154.966 28.2784 162.417 28.2784 162.417L37.3568 165.44L42.2815 161.959L50.3703 132.422L76.5937 68.4399Z" fill="#E4E4E4"/>
<path d="M88.1798 22.3365H85.2647C76.7367 22.346 62.1602 34.4083 67.8005 42.8688C62.9842 55.7159 62.8086 62.4003 64.8532 65.8987C65.6058 67.1865 67.1001 67.7732 68.5881 67.6687C68.7864 67.6548 68.9862 67.6506 69.1873 67.6572C70.6289 67.7049 72.5625 74.4812 73.9042 75.0022L77.466 73.9195L83.3082 68.0816L80.3438 59.1777L74.6076 54.6897L75.3891 44.2959C71.5498 35.4718 75.7267 35.0399 78.0774 32.1935L78.3151 41.3255L81.6817 38.0766C84.4238 38.1477 87.6284 39.3365 89.7586 36.8637C93.6284 32.3365 97.64 37.8025 102.211 38.9073L103.628 37.785C103.677 35.239 103.3 32.7808 102.569 30.5795C102.225 29.5433 101.346 28.6894 101.309 27.6594C101.17 23.794 93.8642 20.0447 88.1798 22.3365Z" fill="#2F2E41"/>
</svg>

<svg xmlns="http://www.w3.org/2000/svg" fill="none" viewBox="0 0 365 386">
  <path fill="#fff" d="M347.915 38.907H118.381c-6.806 0-12.34 5.535-12.34 12.34v84.32c0 6.806 5.534 12.34 12.34 12.34h229.534c6.806 0 12.34-5.534 12.34-12.34v-84.32c0-6.806-5.534-12.34-12.34-12.34Z"/>
  <path fill="#3F3D56" d="M347.915 38.907H118.381c-6.806 0-12.34 5.535-12.34 12.34v84.32c0 6.806 5.534 12.34 12.34 12.34h229.534c6.806 0 12.34-5.534 12.34-12.34v-84.32c0-6.806-5.534-12.34-12.34-12.34Zm11.042 96.66c0 6.092-4.95 11.043-11.042 11.043H118.381c-6.092 0-11.043-4.951-11.043-11.043v-84.32c0-6.092 4.951-11.042 11.043-11.042h229.534c6.092 0 11.042 4.95 11.042 11.043v84.319Z"/>
  <path fill="#E4E4E4" d="M129.128 77.336h204a3.5 3.5 0 1 1 0 7h-204a3.5 3.5 0 1 1 0-7Zm0 23h74a3.5 3.5 0 1 1 0 7h-74a3.5 3.5 0 1 1 0-7Zm108.5 17c7.732 0 14-6.268 14-14s-6.268-14-14-14-14 6.268-14 14 6.268 14 14 14Z"/>
  <path fill="#fff" d="M244.91 95.139c-.667-.39-1.686-.188-2.052.538l-4.992 9.89c-1.343-2.103-3.06-3.94-5.052-5.479-.642-.495-1.681-.097-2.052.539-.454.774-.106 1.555.538 2.052 2.323 1.794 4.114 4.207 5.32 6.869.459 1.012 2.112.948 2.591 0l6.237-12.357c.365-.723.191-1.626-.538-2.052Z"/>
  <path fill="#2F2E41" d="M60.517 68.07c.888-4.095 1.149-1.078 3.081-4.793-1.326 4.801 1.12 3.229 4.371 6.994 22.844 3.581 24.283-4.242 32.737-4.003h.043c1.86-.03 2.816-2.258 1.694-3.742-2.769-3.665-5.821-9.321-2.933-12.882 5.118-6.308.608-19.243-1.598-16.447 0-10.787-13.284-17.86-18.437-16.108-9.521 3.239-18.34 7.606-19.407 17.38a65.037 65.037 0 0 1-.657 4.553c-.556 3.068-2.85 3.882-2.06 6.895l2.467 2.51c1.158 4.42.793 9.062-.794 13.348-.877 2.369-.998 4.4 1.493 6.296Z"/>
  <path fill="#FFB8B8" d="M84.298 53.596c7.908 0 14.319-6.41 14.319-14.318 0-7.908-6.41-14.319-14.319-14.319-7.908 0-14.318 6.41-14.318 14.319 0 7.908 6.41 14.318 14.318 14.318Z"/>
  <path fill="#A0616A" d="m61.993 365.697 7.374.174 4.11-33.128-10.882-.257-.602 33.211Z"/>
  <path fill="#2F2E41" d="M87.292 381.081c0 1.246-.884 2.256-1.975 2.256H70.681s-1.44-5.79-7.313-8.282l-.405 8.282h-7.55l.914-13.317s-2.02-7.124 2.175-10.766c4.195-3.641.797-3.134.797-3.134l1.65-8.242 11.41 1.342.084 12.937 5.537 12.842 8.121 4.012c.723.357 1.19 1.17 1.19 2.07Z"/>
  <path fill="#A0616A" d="m70.103 335.642 5.857 4.483 22.831-24.353-8.643-6.617-20.045 26.487Z"/>
  <path fill="#2F2E41" d="M81.489 362.974c-.734 1.006-2.043 1.302-2.924.66l-11.83-8.62s2.247-5.528-1.032-11l-5.205 6.455-6.102-4.447 8.581-10.223s2.564-6.947 8.099-7.42c5.534-.473 2.49-2.064 2.49-2.064l6.187-5.69 8.431 7.804-7.551 10.506-3.088 13.639 4.2 8.025c.375.714.274 1.648-.256 2.375Z"/>
  <path fill="#2F2E41" d="M49.003 196.309c.444 1.823-.374 10.306.083 13.225 1.165 7.422 11.802 47.887 9.967 59.422-6.723 42.266 2.575 69.38 2.575 69.38h15l8-128 7.808 10.293 15.278 45.631-27.026 48.592L94.8 326.506l42.134-66.991-29.941-112.064-1.809-6.766-40.453-1.129 2.251 3.373-5.12 5.059s-.007.014-.034.041c-.79 1.102-18.32 25.765-12.825 48.28Z"/>
  <path fill="#FFB8B8" d="M61.828 148.029c4.685 1.673 36.346-.054 45.165-.578l-1.809-6.766-40.453-1.129 2.251 3.373-5.12 5.059s-.007.014-.034.041Z"/>
  <path fill="#E4E4E4" d="m114.189 93.843-1.457 7.732-.354 1.854-7.75 15.908 1.019 23.32c.652 2.729-26.867-3.464-41.163 2.934l-11.128-53.22 11.284-24.53 8.83-4.905 1.472-5.887h18.706c.996 4.666-.084 6.964-2.02 8.288l4.686 12.496 17.875 16.01Z"/>
  <path fill="#FFB8B8" d="M128.82 48.239c-.231 2.002-.896 3.786-1.814 5.13l-1.001 19.214-9.128-.744 1.998-19.41c-.587-1.519-.827-3.407-.596-5.41.529-4.573 3.318-8.008 6.229-7.672 2.91.337 4.841 4.318 4.312 8.892Z"/>
  <path fill="#E4E4E4" d="m92.437 68.43 1.191 2.906s-17.4-1.743-17.028 7.342c.317 7.752 33.069 38.472 34.634 39.189 4.635 2.124 10.022-.735 10.861-5.764 7.375-19.027 8.903-36.181 5.533-51.767h-10l-3.256 12.295-.183 9.353-5.273 11.248-17.288-21.896.81-2.906Z"/>
  <path fill="#FFB8B8" d="M34.464 175.224c.643-1.959.79-3.901.514-5.544l7.304-18.275-8.798-3.221-6.462 18.885c-1.196 1.16-2.228 2.811-2.871 4.77-1.469 4.476-.35 8.861 2.497 9.796 2.848.935 6.348-1.936 7.816-6.411Z"/>
  <path fill="#E4E4E4" d="M76.594 68.44s-10.803-4.096-16.935.909c-2.53 2.064-13.714 16.287-15.437 35.436-.135 1.501-1.157 2.792-1.733 4.195-3.552 8.656-9.667 12.643-12.267 20.046-1.017 2.893.847 10.375.205 12.871-3.362 13.069-2.149 20.52-2.149 20.52l9.079 3.023 4.925-3.481 8.088-29.537L76.594 68.44Z"/>
  <path fill="#2F2E41" d="M88.18 22.337h-2.915c-8.528.009-23.105 12.071-17.465 20.532-4.816 12.847-4.991 19.531-2.947 23.03.753 1.287 2.247 1.874 3.735 1.77a5.83 5.83 0 0 1 .6-.012c1.44.048 3.374 6.824 4.716 7.345l3.562-1.082 5.842-5.838-2.964-8.904-5.736-4.488.781-10.394c-3.84-8.824.338-9.256 2.688-12.102l.238 9.131 3.367-3.248c2.742.07 5.946 1.26 8.077-1.213 3.87-4.527 7.881.939 12.452 2.043l1.417-1.122c.049-2.546-.328-5.004-1.059-7.205-.344-1.037-1.223-1.89-1.26-2.92-.139-3.866-7.445-7.615-13.13-5.323Z"/>
</svg>
